UI/Devices-Sensors/SVG/keyboard_solid_24px.svg

<svg width="24" height="24" viewBox="0 0 24 24" fill="none" xmlns="http://www.w3.org/2000/svg">
<path fill-rule="evenodd" clip-rule="evenodd" d="M2 4V18C2 18.5304 2.21071 19.0391 2.58579 19.4142C2.96086 19.7893 3.46957 20 4 20H20C20.5304 20 21.0391 19.7893 21.4142 19.4142C21.7893 19.0391 22 18.5304 22 18V4H2ZM11 8H13V10H11V8ZM11 11H13V13H11V11ZM8 8H10V10H8V8ZM8 11H10V13H8V11ZM7 16H5V14H7V16ZM7 13H5V11H7V13ZM7 10H5V8H7V10ZM16 16H8V14H16V16ZM16 13H14V11H16V13ZM16 10H14V8H16V10ZM19 16H17V14H19V16ZM19 13H17V11H19V13ZM19 10H17V8H19V10Z" fill="#0F1621"/>
</svg>

<svg xmlns="http://www.w3.org/2000/svg" width="24" height="24" viewBox="0 0 24 24"><rect width="24" height="24" style="fill:none"/><path d="M2,4V18a2,2,0,0,0,2,2H20a2,2,0,0,0,2-2V4Zm9,4h2v2H11Zm0,3h2v2H11ZM8,8h2v2H8Zm0,3h2v2H8ZM7,16H5V14H7Zm0-3H5V11H7Zm0-3H5V8H7Zm9,6H8V14h8Zm0-3H14V11h2Zm0-3H14V8h2Zm3,6H17V14h2Zm0-3H17V11h2Zm0-3H17V8h2Z" style="fill-rule:evenodd"/></svg>
